svg/color/echt.svg

<?xml version="1.0" encoding="UTF-8" ?>
<!DOCTYPE svg PUBLIC "-//W3C//DTD SVG 1.1//EN" "http://www.w3.org/Graphics/SVG/1.1/DTD/svg11.dtd">
<svg width="250pt" height="250pt" viewBox="0 0 250 250" version="1.1" xmlns="http://www.w3.org/2000/svg">
<g id="#ffffffff">
<path fill="#ffffff" opacity="1.00" d=" M 0.00 0.00 L 250.00 0.00 L 250.00 250.00 L 0.00 250.00 L 0.00 0.00 M 91.82 30.73 C 68.44 39.39 48.48 57.16 37.51 79.59 C 30.13 93.81 26.64 110.00 27.30 126.00 C 27.20 148.94 35.85 171.77 51.03 188.97 C 52.99 191.19 55.13 193.81 54.58 197.00 C 53.98 201.80 49.10 204.06 45.53 206.49 C 38.25 211.31 30.27 215.19 23.70 220.99 C 28.45 221.50 33.23 221.36 38.00 221.35 C 68.33 221.33 98.66 221.37 128.99 221.33 C 151.84 221.26 174.41 212.57 191.73 197.72 C 208.34 183.52 219.88 163.62 224.02 142.16 C 229.72 113.54 221.48 82.60 202.76 60.27 C 186.75 40.93 163.17 28.00 138.16 25.33 C 122.57 22.99 106.62 25.68 91.82 30.73 Z" />
<path fill="#ffffff" opacity="1.00" d=" M 119.46 47.66 C 136.05 46.15 153.23 49.59 167.38 58.55 C 183.64 68.33 196.12 84.38 201.42 102.61 C 207.23 121.80 205.42 143.27 196.03 161.03 C 188.45 175.46 176.37 187.55 161.71 194.74 C 134.65 208.76 99.47 204.55 76.53 184.48 C 59.75 170.42 49.32 148.96 49.12 127.02 C 48.58 110.42 53.79 93.82 63.25 80.22 C 76.12 61.95 97.13 49.54 119.46 47.66 M 163.31 92.38 C 158.19 93.89 154.23 98.00 151.46 102.42 C 143.93 115.89 143.91 133.18 151.33 146.70 C 154.59 152.31 160.16 157.45 166.98 157.56 C 172.36 157.71 177.16 154.44 180.40 150.39 C 186.80 142.51 189.01 132.00 188.50 122.03 C 188.14 113.02 185.07 103.82 178.79 97.20 C 174.92 93.06 168.89 90.72 163.31 92.38 M 111.39 101.47 C 107.23 102.90 104.40 106.66 102.54 110.47 C 99.44 117.34 99.01 125.27 100.66 132.57 C 101.89 138.02 104.74 143.40 109.59 146.41 C 113.22 148.70 118.23 148.26 121.46 145.46 C 127.88 140.40 130.17 131.82 130.13 123.96 C 129.97 116.43 127.67 108.30 121.57 103.42 C 118.81 101.02 114.83 100.49 111.39 101.47 M 72.52 110.64 C 70.22 111.41 68.58 113.38 67.38 115.40 C 63.12 122.51 63.96 132.31 69.42 138.55 C 72.37 142.02 78.26 141.40 80.99 137.98 C 86.57 131.25 86.88 120.52 81.34 113.67 C 79.34 111.04 75.74 109.53 72.52 110.64 Z" />
</g>
<g id="#6e3ccfff">
<path fill="#6e3ccf" opacity="1.00" d=" M 91.82 30.73 C 106.62 25.68 122.57 22.99 138.16 25.33 C 163.17 28.00 186.75 40.93 202.76 60.27 C 221.48 82.60 229.72 113.54 224.02 142.16 C 219.88 163.62 208.34 183.52 191.73 197.72 C 174.41 212.57 151.84 221.26 128.99 221.33 C 98.66 221.37 68.33 221.33 38.00 221.35 C 33.23 221.36 28.45 221.50 23.70 220.99 C 30.27 215.19 38.25 211.31 45.53 206.49 C 49.10 204.06 53.98 201.80 54.58 197.00 C 55.13 193.81 52.99 191.19 51.03 188.97 C 35.85 171.77 27.20 148.94 27.30 126.00 C 26.64 110.00 30.13 93.81 37.51 79.59 C 48.48 57.16 68.44 39.39 91.82 30.73 M 119.46 47.66 C 97.13 49.54 76.12 61.95 63.25 80.22 C 53.79 93.82 48.58 110.42 49.12 127.02 C 49.32 148.96 59.75 170.42 76.53 184.48 C 99.47 204.55 134.65 208.76 161.71 194.74 C 176.37 187.55 188.45 175.46 196.03 161.03 C 205.42 143.27 207.23 121.80 201.42 102.61 C 196.12 84.38 183.64 68.33 167.38 58.55 C 153.23 49.59 136.05 46.15 119.46 47.66 Z" />
<path fill="#6e3ccf" opacity="1.00" d=" M 163.31 92.38 C 168.89 90.72 174.92 93.06 178.79 97.20 C 185.07 103.82 188.14 113.02 188.50 122.03 C 189.01 132.00 186.80 142.51 180.40 150.39 C 177.16 154.44 172.36 157.71 166.98 157.56 C 160.16 157.45 154.59 152.31 151.33 146.70 C 143.91 133.18 143.93 115.89 151.46 102.42 C 154.23 98.00 158.19 93.89 163.31 92.38 Z" />
<path fill="#6e3ccf" opacity="1.00" d=" M 111.39 101.47 C 114.83 100.49 118.81 101.02 121.57 103.42 C 127.67 108.30 129.97 116.43 130.13 123.96 C 130.17 131.82 127.88 140.40 121.46 145.46 C 118.23 148.26 113.22 148.70 109.59 146.41 C 104.74 143.40 101.89 138.02 100.66 132.57 C 99.01 125.27 99.44 117.34 102.54 110.47 C 104.40 106.66 107.23 102.90 111.39 101.47 Z" />
<path fill="#6e3ccf" opacity="1.00" d=" M 72.52 110.64 C 75.74 109.53 79.34 111.04 81.34 113.67 C 86.88 120.52 86.57 131.25 80.99 137.98 C 78.26 141.40 72.37 142.02 69.42 138.55 C 63.96 132.31 63.12 122.51 67.38 115.40 C 68.58 113.38 70.22 111.41 72.52 110.64 Z" />
</g>
</svg>

<?xml version="1.0" encoding="utf-8"?>
<!-- Generator: Adobe Illustrator 26.0.3, SVG Export Plug-In . SVG Version: 6.00 Build 0)  -->
<svg version="1.1" id="Layer_1" xmlns="http://www.w3.org/2000/svg" xmlns:xlink="http://www.w3.org/1999/xlink" x="0px" y="0px"
	 viewBox="0 0 250 250" style="enable-background:new 0 0 250 250;" xml:space="preserve">
<style type="text/css">
	.st0{fill:#FFFFFF;}
	.st1{fill:#6E3CCF;}
</style>
<g id="_x23_ffffffff">
	<path class="st0" d="M119.5,47.7c16.6-1.5,33.8,1.9,47.9,10.9c16.3,9.8,28.7,25.8,34,44.1c5.8,19.2,4,40.7-5.4,58.4
		c-7.6,14.4-19.7,26.5-34.3,33.7c-27.1,14-62.2,9.8-85.2-10.3C59.8,170.4,49.3,149,49.1,127c-0.5-16.6,4.7-33.2,14.1-46.8
		C76.1,62,97.1,49.5,119.5,47.7 M163.3,92.4c-5.1,1.5-9.1,5.6-11.8,10c-7.5,13.5-7.6,30.8-0.1,44.3c3.3,5.6,8.8,10.8,15.6,10.9
		c5.4,0.2,10.2-3.1,13.4-7.2c6.4-7.9,8.6-18.4,8.1-28.4c-0.4-9-3.4-18.2-9.7-24.8C174.9,93.1,168.9,90.7,163.3,92.4 M111.4,101.5
		c-4.2,1.4-7,5.2-8.8,9c-3.1,6.9-3.5,14.8-1.9,22.1c1.2,5.4,4.1,10.8,8.9,13.8c3.6,2.3,8.6,1.8,11.9-0.9c6.4-5.1,8.7-13.6,8.7-21.5
		c-0.2-7.5-2.5-15.7-8.6-20.5C118.8,101,114.8,100.5,111.4,101.5 M72.5,110.6c-2.3,0.8-3.9,2.7-5.1,4.8c-4.3,7.1-3.4,16.9,2,23.2
		c3,3.5,8.8,2.8,11.6-0.6c5.6-6.7,5.9-17.5,0.3-24.3C79.3,111,75.7,109.5,72.5,110.6z"/>
</g>
<g id="_x23_6e3ccfff">
	<path class="st1" d="M91.8,30.7c14.8-5,30.8-7.7,46.3-5.4c25,2.7,48.6,15.6,64.6,34.9c18.7,22.3,27,53.3,21.3,81.9
		c-4.1,21.5-15.7,41.4-32.3,55.6c-17.3,14.9-39.9,23.5-62.7,23.6c-30.3,0-60.7,0-91,0c-4.8,0-9.5,0.1-14.3-0.4
		c6.6-5.8,14.5-9.7,21.8-14.5c3.6-2.4,8.5-4.7,9.1-9.5c0.5-3.2-1.6-5.8-3.6-8c-15.2-17.2-23.8-40-23.7-63
		c-0.7-16,2.8-32.2,10.2-46.4C48.5,57.2,68.4,39.4,91.8,30.7 M119.5,47.7C97.1,49.5,76.1,62,63.2,80.2
		c-9.5,13.6-14.7,30.2-14.1,46.8c0.2,21.9,10.6,43.4,27.4,57.5c22.9,20.1,58.1,24.3,85.2,10.3c14.7-7.2,26.7-19.3,34.3-33.7
		c9.4-17.8,11.2-39.2,5.4-58.4c-5.3-18.2-17.8-34.3-34-44.1C153.2,49.6,136.1,46.2,119.5,47.7z"/>
	<path class="st1" d="M163.3,92.4c5.6-1.7,11.6,0.7,15.5,4.8c6.3,6.6,9.4,15.8,9.7,24.8c0.5,10-1.7,20.5-8.1,28.4
		c-3.2,4.1-8,7.3-13.4,7.2c-6.8-0.1-12.4-5.2-15.6-10.9c-7.4-13.5-7.4-30.8,0.1-44.3C154.2,98,158.2,93.9,163.3,92.4z"/>
	<path class="st1" d="M111.4,101.5c3.4-1,7.4-0.5,10.2,1.9c6.1,4.9,8.4,13,8.6,20.5c0,7.9-2.3,16.4-8.7,21.5
		c-3.2,2.8-8.2,3.2-11.9,0.9c-4.8-3-7.7-8.4-8.9-13.8c-1.7-7.3-1.2-15.2,1.9-22.1C104.4,106.7,107.2,102.9,111.4,101.5z"/>
	<path class="st1" d="M72.5,110.6c3.2-1.1,6.8,0.4,8.8,3c5.5,6.8,5.2,17.6-0.3,24.3c-2.7,3.4-8.6,4-11.6,0.6c-5.5-6.2-6.3-16-2-23.2
		C68.6,113.4,70.2,111.4,72.5,110.6z"/>
</g>
</svg>
